build/img/meduza.svg

<?xml version="1.0" encoding="UTF-8" standalone="no"?>
<svg width="544px" height="115px" viewBox="0 0 544 115" version="1.1" xmlns="http://www.w3.org/2000/svg" xmlns:xlink="http://www.w3.org/1999/xlink" xmlns:sketch="http://www.bohemiancoding.com/sketch/ns">
    <!-- Generator: Sketch 3.3.2 (12043) - http://www.bohemiancoding.com/sketch -->
    <title>meduza correct</title>
    <desc>Created with Sketch.</desc>
    <defs></defs>
    <g id="Page-1" stroke="none" stroke-width="1" fill="none" fill-rule="evenodd" sketch:type="MSPage">
        <g id="meduza-correct" sketch:type="MSLayerGroup" fill="#B88B58">
            <g id="Page-1" sketch:type="MSShapeGroup">
                <g id="meduza">
                    <path d="M59.1008614,49.65632 L59.1008614,106.01472 L84.9480411,114.24 L84.9480411,49.65632 L101.574882,49.65632 L101.574882,106.01472 L127.270909,114.24 L144.048902,91.392 L127.422062,91.392 L127.422062,35.7952 L101.726035,26.80832 L84.9480411,46.60992 L84.9480411,35.7952 L59.2520145,26.80832 L42.4740206,46.60992 L42.4740206,35.7952 L16.7779939,26.80832 L0,49.65632 L16.6268408,49.65632 L16.6268408,106.01472 L42.4740206,114.24 L42.4740206,49.65632 L59.1008614,49.65632 L59.1008614,49.65632 Z M336.61795,91.392 L336.61795,35.0336 L310.770769,26.80832 L310.770769,105.25312 L336.466796,114.24 L353.24479,94.4384 L353.24479,105.25312 L378.940817,114.24 L395.71881,91.392 L379.091969,91.392 L379.091969,35.0336 L353.24479,26.80832 L353.24479,91.392 L336.61795,91.392 L336.61795,91.392 Z M527.373159,38.08 L502.130592,26.80832 L472.202278,41.1264 L502.130592,52.39808 L461.016949,72.352 L461.016949,104.94848 L486.86413,114.24 L502.130592,94.28608 L502.130592,105.25312 L527.977771,114.24 L544,91.23968 L527.373159,91.23968 L527.373159,38.08 L527.373159,38.08 Z M177.453737,114.24 L207.079744,102.35904 L177.453737,91.23968 L177.453737,75.24608 L216.300083,56.3584 L194.231731,26.80832 L151.606557,47.37152 L151.606557,103.12064 L177.453737,114.24 L177.453737,114.24 Z M455.424284,89.56416 L423.984441,79.968 L453.459295,42.19264 L416.577937,26.80832 L397.230341,51.48416 L428.821339,61.23264 L398.741873,98.85568 L436.076687,114.24 L455.424284,89.56416 L455.424284,89.56416 Z M486.86413,91.392 L486.86413,68.84864 L502.130592,61.53728 L502.130592,91.392 L486.86413,91.392 L486.86413,91.392 Z M177.453737,41.58336 L190.452904,59.55712 L177.453737,65.80224 L177.453737,41.58336 L177.453737,41.58336 Z M222.95082,103.12064 L248.797999,114.24 L291.27202,97.18016 L291.27202,29.7024 L222.95082,0 L222.95082,26.30784 L265.424841,43.21536 L265.424841,97.33248 L248.797999,91.23968 L248.797999,43.71584 L222.95082,51.94112 L222.95082,103.12064 L222.95082,103.12064 Z" id="Imported-Layers"></path>
                </g>
            </g>
        </g>
    </g>
</svg>

<svg width="544" height="115" viewBox="0 0 544 115" xmlns="http://www.w3.org/2000/svg"><title>meduza correct</title><path d="M59.1 49.656v56.359l25.848 8.225V49.656h16.627v56.359l25.696 8.225 16.778-22.848h-16.627V35.795l-25.696-8.987L84.948 46.61V35.795l-25.696-8.987L42.474 46.61V35.795l-25.696-8.987L0 49.656h16.627v56.359l25.847 8.225V49.656h16.627zm277.518 41.736V35.034l-25.847-8.226v78.445l25.696 8.987 16.778-19.802v10.815l25.696 8.987 16.778-22.848h-16.627V35.034l-25.847-8.226v64.584h-16.627zM527.373 38.08l-25.242-11.272-29.929 14.318 29.929 11.272-41.114 19.954v32.596l25.847 9.292 15.267-19.954v10.967l25.847 8.987 16.022-23h-16.627V38.08zm-349.92 76.16l29.627-11.881-29.626-11.12V75.247L216.3 56.358l-22.068-29.55-42.625 20.564v55.749l25.847 11.119zm277.971-24.676l-31.44-9.596 29.475-37.775-36.881-15.385-19.348 24.676 31.591 9.749-30.08 37.623 37.336 15.384 19.347-24.676zm31.44 1.828V68.849l15.267-7.312v29.855h-15.267zm-309.41-49.809l12.999 17.974-13 6.245V41.583zm45.497 61.538l25.847 11.119 42.474-17.06V29.702L222.951 0v26.308l42.474 16.907v54.117l-16.627-6.092V43.716l-25.847 8.225v51.18z" fill="#B88B58" fill-rule="evenodd"/></svg>
